24x24/apps/aegisub.svg

<svg xmlns="http://www.w3.org/2000/svg" width="24" height="24" version="1">
 <path style="opacity:0.2" d="M 6.3150028,2.8111197 A 2.386832,2.4086047 10.871574 0 0 5.3898785,3.7213529 L 1.32195,10.813109 a 2.386832,2.4086047 10.871574 0 0 -0.004,2.408068 l 4.044537,7.078415 a 2.386832,2.4086047 10.871574 0 0 2.0657231,1.200405 l 8.1123079,-0.01361 a 2.386832,2.4086047 10.871574 0 0 2.069734,-1.207425 l 4.067823,-7.091939 a 2.386832,2.4086047 10.871574 0 0 0.0039,-2.408068 L 17.637538,3.7005344 A 2.386832,2.4086047 10.871574 0 0 15.57162,2.4999984 L 7.4594166,2.5137969 A 2.386832,2.4086047 10.871574 0 0 6.3146263,2.8110953 Z"/>
 <path style="fill:#ff4141" d="M 6.3150028,2.3111199 A 2.386832,2.4086047 10.871574 0 0 5.3898785,3.2213531 L 1.32195,10.313108 a 2.386832,2.4086047 10.871574 0 0 -0.004,2.408068 l 4.044537,7.078415 a 2.386832,2.4086047 10.871574 0 0 2.0657231,1.200405 l 8.1123079,-0.01361 a 2.386832,2.4086047 10.871574 0 0 2.069734,-1.207425 l 4.067823,-7.091939 a 2.386832,2.4086047 10.871574 0 0 0.0039,-2.408068 L 17.637538,3.2005346 A 2.386832,2.4086047 10.871574 0 0 15.57162,1.9999986 L 7.4594166,2.0137971 A 2.386832,2.4086047 10.871574 0 0 6.3146263,2.3110955 Z"/>
 <path style="opacity:0.2" d="M 6.6787099,2.1503857 A 2.386832,2.4086047 10.871574 0 0 6.3144518,2.3115186 2.386832,2.4086047 10.871574 0 0 5.389647,3.221675 l -4.0673839,7.091799 a 2.386832,2.4086047 10.871574 0 0 -0.00391,2.407227 L 5.362303,19.799804 A 2.386832,2.4086047 10.871574 0 0 7.4277336,21 L 15.54004,20.98633 a 2.386832,2.4086047 10.871574 0 0 1.634766,-0.657227 L 6.6787099,2.1503857 Z"/>
 <path style="opacity:0.2" d="M 16.47754,2.1826123 5.9999987,20.329101 c 0,0 -0.067045,0.103508 -0.082031,0.125977 A 2.386832,2.4086047 10.871574 0 0 7.4277336,21 L 15.54004,20.98633 a 2.386832,2.4086047 10.871574 0 0 2.070313,-1.207031 l 4.067384,-7.091801 a 2.386832,2.4086047 10.871574 0 0 0.0039,-2.408204 L 17.637697,3.2001906 A 2.386832,2.4086047 10.871574 0 0 16.47754,2.1826123 Z"/>
 <path style="opacity:0.2" d="M 1.0507812 12 A 2.386832 2.4086047 10.871574 0 0 1.3183594 12.720703 L 5.3632812 19.798828 A 2.386832 2.4086047 10.871574 0 0 5.3730469 19.814453 C 5.4731596 19.986319 5.5932754 20.142637 5.7285156 20.28125 A 2.386832 2.4086047 10.871574 0 0 5.7597656 20.3125 C 5.8984999 20.449488 6.0524872 20.569521 6.21875 20.667969 A 2.386832 2.4086047 10.871574 0 0 6.2597656 20.691406 C 6.4250367 20.784857 6.6011993 20.858514 6.7851562 20.910156 A 2.386832 2.4086047 10.871574 0 0 6.8183594 20.919922 C 7.0147171 20.971931 7.2192042 21.000339 7.4277344 21 L 15.541016 20.986328 C 15.744272 20.986042 15.942785 20.956288 16.134766 20.90625 A 2.386832 2.4086047 10.871574 0 0 16.1875 20.892578 C 16.374424 20.839211 16.553015 20.764337 16.720703 20.667969 A 2.386832 2.4086047 10.871574 0 0 16.751953 20.648438 C 16.916186 20.550635 17.06943 20.43405 17.207031 20.298828 A 2.386832 2.4086047 10.871574 0 0 17.236328 20.271484 C 17.375914 20.129639 17.498688 19.967668 17.601562 19.791016 A 2.386832 2.4086047 10.871574 0 0 17.609375 19.779297 L 21.677734 12.6875 A 2.386832 2.4086047 10.871574 0 0 21.941406 12 L 1.0507812 12 z"/>
 <path style="opacity:0.2" d="M 11.5,7.4999961 C 7.28125,7.4999961 4,10.999998 4,12.08203 4,13.499999 7.28125,16.5 11.5,16.5 15.71875,16.5 19,12.999999 19,12.08203 19,10.999998 15.71875,7.4999961 11.5,7.4999961 Z"/>
 <path style="fill:#f4f4f7" d="m 11.5,6.9999963 c -4.21875,0 -7.5,3.5000007 -7.5,4.5820327 0,1.417969 3.28125,4.41797 7.5,4.41797 4.21875,0 7.5,-3.500001 7.5,-4.41797 0,-1.082032 -3.28125,-4.5820327 -7.5,-4.5820327 z"/>
 <circle style="fill:#1b87e6" cx="11.5" cy="11.5" r="3.5"/>
 <circle style="fill:#17191e" cx="11.5" cy="11.5" r="1.5"/>
 <path style="fill:#f4f4f7;opacity:0.2" d="M 15.572266 2 L 7.4589844 2.0136719 A 2.386832 2.4086047 10.871574 0 0 6.3144531 2.3105469 A 2.386832 2.4086047 10.871574 0 0 5.390625 3.2207031 L 1.3222656 10.3125 A 2.386832 2.4086047 10.871574 0 0 1.015625 11.773438 A 2.386832 2.4086047 10.871574 0 1 1.3222656 10.8125 L 5.390625 3.7207031 A 2.386832 2.4086047 10.871574 0 1 6.3144531 2.8105469 A 2.386832 2.4086047 10.871574 0 1 7.4589844 2.5136719 L 15.572266 2.5 A 2.386832 2.4086047 10.871574 0 1 17.636719 3.7011719 L 21.681641 10.779297 A 2.386832 2.4086047 10.871574 0 1 21.984375 11.726562 A 2.386832 2.4086047 10.871574 0 0 21.681641 10.279297 L 17.636719 3.2011719 A 2.386832 2.4086047 10.871574 0 0 15.572266 2 z"/>
</svg>

<svg xmlns="http://www.w3.org/2000/svg" width="24" height="24" version="1"><path style="opacity:.2" d="M6.315 2.811a2.387 2.409 10.872 0 0-.925.91l-4.068 7.092a2.387 2.409 10.872 0 0-.004 2.408L5.362 20.3a2.387 2.409 10.872 0 0 2.066 1.2l8.113-.014a2.387 2.409 10.872 0 0 2.07-1.207l4.067-7.092a2.387 2.409 10.872 0 0 .004-2.408l-4.044-7.078A2.387 2.409 10.872 0 0 15.572 2.5l-8.113.014a2.387 2.409 10.872 0 0-1.144.297z"/><path style="fill:#ff4141" d="M6.315 2.311a2.387 2.409 10.872 0 0-.925.91l-4.068 7.092a2.387 2.409 10.872 0 0-.004 2.408L5.362 19.8A2.387 2.409 10.872 0 0 7.428 21l8.113-.014a2.387 2.409 10.872 0 0 2.07-1.207l4.067-7.092a2.387 2.409 10.872 0 0 .004-2.408l-4.044-7.078A2.387 2.409 10.872 0 0 15.572 2l-8.113.014a2.387 2.409 10.872 0 0-1.144.297z"/><path style="opacity:.2" d="M6.679 2.15a2.387 2.409 10.872 0 0-.365.162 2.387 2.409 10.872 0 0-.924.91l-4.068 7.091a2.387 2.409 10.872 0 0-.004 2.408L5.362 19.8A2.387 2.409 10.872 0 0 7.428 21l8.112-.014a2.387 2.409 10.872 0 0 1.635-.657L6.679 2.15z"/><path style="opacity:.2" d="M16.478 2.183 6 20.329l-.082.126a2.387 2.409 10.872 0 0 1.51.545l8.112-.014a2.387 2.409 10.872 0 0 2.07-1.207l4.068-7.092a2.387 2.409 10.872 0 0 .004-2.408L17.638 3.2a2.387 2.409 10.872 0 0-1.16-1.017z"/><path style="opacity:.2" d="M1.05 12a2.387 2.409 10.872 0 0 .268.72L5.363 19.8a2.387 2.409 10.872 0 0 .01.015c.1.172.22.329.356.467a2.387 2.409 10.872 0 0 .03.032c.14.136.293.257.46.355a2.387 2.409 10.872 0 0 .04.023c.166.094.342.168.526.22a2.387 2.409 10.872 0 0 .033.009c.197.052.401.08.61.08l8.113-.014c.203 0 .402-.03.594-.08a2.387 2.409 10.872 0 0 .052-.013c.187-.054.366-.129.534-.225a2.387 2.409 10.872 0 0 .031-.02 2.4 2.4 0 0 0 .455-.35 2.387 2.409 10.872 0 0 .03-.027c.139-.141.262-.303.365-.48a2.387 2.409 10.872 0 0 .007-.012l4.069-7.091A2.387 2.409 10.872 0 0 21.94 12H1.051z"/><path style="opacity:.2" d="M11.5 7.5C7.281 7.5 4 11 4 12.082 4 13.5 7.281 16.5 11.5 16.5c4.219 0 7.5-3.5 7.5-4.418C19 11 15.719 7.5 11.5 7.5z"/><path style="fill:#f4f4f7" d="M11.5 7C7.281 7 4 10.5 4 11.582 4 13 7.281 16 11.5 16c4.219 0 7.5-3.5 7.5-4.418C19 10.5 15.719 7 11.5 7z"/><circle style="fill:#1b87e6" cx="11.5" cy="11.5" r="3.5"/><circle style="fill:#17191e" cx="11.5" cy="11.5" r="1.5"/><path style="fill:#f4f4f7;opacity:.2" d="m15.572 2-8.113.014a2.387 2.409 10.872 0 0-1.145.297 2.387 2.409 10.872 0 0-.923.91l-4.069 7.091a2.387 2.409 10.872 0 0-.306 1.461 2.387 2.409 10.872 0 1 .306-.96L5.391 3.72a2.387 2.409 10.872 0 1 .923-.91 2.387 2.409 10.872 0 1 1.145-.297l8.113-.014a2.387 2.409 10.872 0 1 2.065 1.201l4.045 7.078a2.387 2.409 10.872 0 1 .302.948 2.387 2.409 10.872 0 0-.302-1.448l-4.045-7.078A2.387 2.409 10.872 0 0 15.572 2z"/></svg>
